X:17797
T:Trip to Skye - Valse/Walzer/Waltz
C:
Z:abc transcription Simon Wascher
N:please mail errors to simon.wascher@chello.at
M:3/4
L:1/8
K:Am
e2dcBA|BdGABd|c2BdcB|c2ABcd|
e2dcBA|BdGABd|c2BdcB|AGEDE2:|
|:E2ABc2|E2ABc2|BdGABd|cBAGED|
E2ABc2|E2ABc2|BdGABd|1c2A2A2:|2c2ABcd||
